assets/security-grey/SecurityGrey8.svg

<svg xmlns="http://www.w3.org/2000/svg" data-name="Layer 3" viewBox="0 0 128 128"><path d="M45.233 105.262h37.534A10.778 10.778 0 0093.532 94.5V56.047a1.61 1.61 0 00-1.61-1.61h-9.6V40.255C82.325 30.6 74.1 22.739 64 22.739S45.675 30.6 45.675 40.255v14.181h-9.6a1.61 1.61 0 00-1.61 1.61V94.5a10.778 10.778 0 0010.768 10.762zM48.9 40.255c0-7.882 6.775-14.3 15.1-14.3s15.1 6.414 15.1 14.3v14.181H48.9zm-11.207 17.4h52.618V94.5a7.553 7.553 0 01-7.544 7.544H45.233a7.553 7.553 0 01-7.544-7.544z"/><path d="M62.389 83.137v8.613a1.61 1.61 0 003.221 0v-8.613a8.935 8.935 0 10-3.221 0zM64 68.643a5.713 5.713 0 11-5.714 5.714A5.721 5.721 0 0164 68.643z"/></svg>

<svg id="Layer_3" data-name="Layer 3" xmlns="http://www.w3.org/2000/svg" viewBox="0 0 128 128"><title>Artboard 104</title><path d="M45.233,105.262H82.767A10.778,10.778,0,0,0,93.532,94.5V56.047a1.61,1.61,0,0,0-1.61-1.61h-9.6V40.255C82.325,30.6,74.1,22.739,64,22.739S45.675,30.6,45.675,40.255V54.436h-9.6a1.61,1.61,0,0,0-1.61,1.61V94.5A10.778,10.778,0,0,0,45.233,105.262ZM48.9,40.255c0-7.882,6.775-14.3,15.1-14.3s15.1,6.414,15.1,14.3V54.436H48.9Zm-11.207,17.4H90.311V94.5a7.553,7.553,0,0,1-7.544,7.544H45.233A7.553,7.553,0,0,1,37.689,94.5Z" style="fill:#231f20"/><path d="M62.389,83.137V91.75a1.61,1.61,0,0,0,3.221,0V83.137a8.935,8.935,0,1,0-3.221,0ZM64,68.643a5.713,5.713,0,1,1-5.714,5.714A5.721,5.721,0,0,1,64,68.643Z" style="fill:#231f20"/></svg>
